svg/Octicons/package.svg

<svg xmlns="http://www.w3.org/2000/svg" viewBox="0 0 1024 1024"><path d="m480 64l-480 128v576l480 128 480-128v-576l-480-128m-416.12 656.93l-.375-432.93 384.5 102.53v432.83l-384.12-102.43m-.375-496.93l160.25-42.734 416.25 111v.135l-160 42.667-416.5-111.07m832.62 496.93l-384.12 102.43v-432.83l128-34.13v156l128-34.13v-156l128.5-34.27-.375 432.93m-128.12-462.67v-.125l-416.27-111 128.27-34.2 416.5 111.07-128.5 34.27"/></svg>

<svg height="1024" width="1024" xmlns="http://www.w3.org/2000/svg">
  <path d="M480 64L0 192v576l480 128 480-128V192L480 64zM63.875 720.934L63.5 288l384.498 102.533 0.001 432.833L63.875 720.934zM63.5 224l160.254-42.734L640 292.265v0.135l-160 42.667L63.5 224zM896.125 720.934L512.001 823.366l0.001-432.833L640 356.4v156l128-34.135V322.267L896.5 288 896.125 720.934zM768 258.26700000000005v-0.125L351.734 147.13800000000003 480 112.93399999999997 896.5 224 768 258.26700000000005z" />
</svg>
